ecoconception/src/assets/svg/logo-vogue.svg

<svg width="204" height="87" viewBox="0 0 204 87" fill="none" xmlns="http://www.w3.org/2000/svg">
<path d="M47.138 67.3657V73.3298H53.8039V76.9399H47.138V86.3909H43.1607V63.7588H55.0897V67.3688H47.138V67.3657Z" fill="black"/>
<path d="M71.0525 77.9151L76.2522 86.3877H71.4799L66.9216 78.436H64.1397V86.3877H60.1622V63.7556H66.6475C70.3479 63.7556 71.8472 64.183 73.163 65.0711C75.1502 66.4171 76.2822 68.7113 76.2822 71.1893C76.2822 74.4286 74.2951 77.1205 71.0525 77.9151ZM70.7452 68.1603C69.827 67.5491 68.6648 67.3657 67.0451 67.3657H64.1397V75.2268H67.5027C71.0826 75.2268 72.3348 73.2399 72.3348 71.2828C72.3348 69.9638 71.7537 68.8317 70.7452 68.1603Z" fill="black"/>
<path d="M98.0861 86.3875L95.9757 81.3114H86.9854L84.8448 86.3875H80.4398L91.0831 63.2678H92.0016L102.521 86.3875H98.0861ZM91.5105 70.6983L88.1143 78.1288H94.8433L91.5105 70.6983Z" fill="black"/>
<path d="M125.517 86.8151H124.355L110.867 71.6135H110.743V86.3842H106.889V63.3247H108.051L121.57 78.4629H121.693V63.7521H125.517V86.8151Z" fill="black"/>
<path d="M141.878 86.8151C135.058 86.8151 130.012 81.4317 130.012 75.0699C130.012 68.8919 134.815 63.3247 141.848 63.3247C148.149 63.3247 151.786 67.8831 152.584 70.8186H148.21C147.171 68.9518 144.847 66.9649 141.818 66.9649C137.229 66.9649 134.11 70.8487 134.11 75.0398C134.11 79.4147 137.413 83.1749 141.848 83.1749C145.304 83.1749 147.321 80.6669 148.24 79.3811H152.581C151.175 83.756 146.864 86.8151 141.878 86.8151Z" fill="black"/>
<path d="M157.29 63.7556H169.8V67.3657H161.267V73.1163H168.394V76.7263H161.267V82.7808H169.8V86.3909H157.29V63.7556Z" fill="black"/>
<path d="M202.838 33.0048L202.825 33.3254C202.594 38.4081 200.811 42.4858 197.525 45.4448C191.714 50.6777 183.155 50.237 180.944 50.2104C180.92 50.2104 180.56 50.2104 180.54 50.2104V26.5295C180.647 26.5295 181.087 26.5295 181.198 26.5261C185.345 26.4994 190.174 26.1254 190.979 36.4814L191.002 36.7885H191.801V15.2151H191.013L190.979 15.5123C189.917 25.3372 184.955 25.2972 180.91 25.3072C180.897 25.3072 180.55 25.3072 180.54 25.3072V2.72849C181.074 2.72515 181.949 2.71847 182.487 2.70846C190.114 2.59157 197.672 1.80678 200.887 18.0336L200.941 18.3042H201.752V1.46948H157.908V2.62831H161.788V38.1544C161.695 43.2573 159.698 46.3896 157.944 48.0495C155.827 50.0567 152.861 51.1086 150.18 51.0151C140.288 50.6577 140.011 40.7093 140.004 40.2784V2.62831H144.509V1.46948H126.987V2.62831H131.635L131.622 36.1174C131.622 45.2743 136.274 52.3376 149.859 52.3376C158.969 52.3376 163.151 44.7699 163.057 38.495V2.62831H167.188V2.63498H172.087V50.1936H167.666V51.389H203.753V33.0048H202.838Z" fill="black"/>
<path d="M111.575 30.0258V31.188H115.609V41.5974C115.602 49.3719 110.446 51.1019 106.402 51.182C102.037 51.2521 99.1115 49.1147 97.455 44.6764C95.822 40.3484 94.9606 36.1706 94.9606 26.4426C94.9606 22.9794 95.4948 11.6216 98.0529 6.6524C99.0246 4.7789 100.835 1.29574 106.231 1.29574C106.248 1.29574 106.265 1.29574 106.282 1.29574C112.86 1.32246 116.641 5.8776 119.707 18.0903L119.77 18.3441H120.515V0H119.797L119.71 0.207052C119.009 1.88684 117.335 2.2542 115.893 2.2208C115.205 2.19408 114.577 2.0939 114.116 2.00039C113.709 1.91022 113.448 1.82673 113.435 1.82339C112.8 1.62302 112.239 1.43267 111.725 1.26235C111.491 1.1822 111.264 1.11541 111.037 1.05196C109.377 0.500934 108.138 0.15028 106.218 0.15028C97.5688 0.15028 85.6664 8.93997 85.6664 27.0737C85.6664 41.8847 94.5629 52.3442 106.706 52.3442C108.966 52.3442 110.833 51.6028 112.59 50.7879C112.917 50.6542 113.241 50.5173 113.552 50.3703C115.268 49.5557 116.895 48.7842 118.725 48.6872C118.798 48.6841 118.872 48.6841 118.945 48.6806C118.995 48.6806 119.045 48.6771 119.099 48.6771C120.157 48.6771 122.281 49.3618 122.692 51.3991L122.745 51.6662L123.457 51.6696V31.1946H127.277V30.0325H111.575V30.0258Z" fill="black"/>
<path d="M59.9185 0.257324C49.6593 0.257324 38.4185 10.5097 38.4185 26.1622C38.4185 41.8146 50.03 52.204 59.9185 52.204C69.8102 52.204 81.4185 41.8146 81.4185 26.1622C81.4217 10.5097 70.1774 0.257324 59.9185 0.257324ZM71.9074 24.2386C71.9108 24.3522 71.914 24.4657 71.914 24.5759C71.9175 24.6594 71.9175 24.7396 71.9175 24.823C71.9175 24.8865 71.9207 24.9533 71.9207 25.0167C71.9207 25.1203 71.9241 25.2205 71.9241 25.3173C71.9241 25.354 71.9241 25.3941 71.9241 25.4308C71.9241 25.5377 71.9273 25.6379 71.9273 25.7381C71.9273 25.7648 71.9273 25.7915 71.9273 25.8182C71.9273 25.9384 71.9273 26.052 71.9273 26.1622C71.9273 26.249 71.9273 26.3425 71.9273 26.4394C71.914 29.3346 71.6704 40.5289 68.7383 46.1093C67.0851 49.342 63.8156 51.052 59.9185 51.052C56.0211 51.052 52.7517 49.342 51.0952 46.1061C48.1632 40.5289 47.9195 29.3315 47.9062 26.4394C47.9062 26.3425 47.9062 26.249 47.9062 26.1622C47.9062 26.0554 47.9062 25.9418 47.9062 25.8182C47.9062 25.7915 47.9062 25.7648 47.9062 25.7381C47.9062 25.6379 47.9059 25.5377 47.9094 25.4308C47.9094 25.3941 47.9094 25.354 47.9094 25.3173C47.9094 25.2205 47.9129 25.1203 47.9129 25.0167C47.9129 24.9533 47.9161 24.8865 47.9161 24.823C47.9161 24.7429 47.9195 24.6594 47.9195 24.5759C47.9227 24.4657 47.9227 24.3522 47.9262 24.2386C47.9262 24.1986 47.9294 24.1585 47.9294 24.1184C48.0431 19.6568 48.6008 11.2745 51.0952 6.34866C53.1192 2.26773 57.1633 1.41281 59.9217 1.41281C62.6769 1.41281 66.721 2.27107 68.7415 6.35534C71.2363 11.2778 71.7905 19.6601 71.9042 24.1218C71.9042 24.1585 71.9074 24.1986 71.9074 24.2386Z" fill="black"/>
<path d="M32.8916 1.47583V2.6213H36.9757L26.0822 39.0725L12.9277 2.6213H16.6613V1.95338H16.6648V1.47583H0.0570679V2.6213H4.86604L23.2937 51.6592H23.5576L38.2348 2.6213H42.7333V1.47583H32.8916Z" fill="black"/>
</svg>

<svg xmlns="http://www.w3.org/2000/svg" width="204" height="87" fill="none"><path fill="#000" d="M47.138 67.366v5.964h6.666v3.61h-6.666v9.45h-3.977V63.76H55.09v3.61h-7.952v-.003ZM71.052 77.915l5.2 8.473H71.48l-4.558-7.952H64.14v7.952h-3.978V63.756h6.485c3.7 0 5.2.427 6.516 1.315 1.987 1.346 3.12 3.64 3.12 6.118 0 3.24-1.988 5.932-5.23 6.726Zm-.307-9.755c-.918-.61-2.08-.794-3.7-.794H64.14v7.86h3.363c3.58 0 4.832-1.986 4.832-3.943 0-1.32-.581-2.451-1.59-3.123ZM98.086 86.388l-2.11-5.077h-8.99l-2.141 5.076H80.44l10.643-23.12h.919l10.519 23.12h-4.435Zm-6.576-15.69-3.396 7.43h6.73l-3.334-7.43ZM125.517 86.815h-1.162l-13.488-15.201h-.124v14.77h-3.854v-23.06h1.162l13.519 15.139h.123v-14.71h3.824v23.062ZM141.878 86.815c-6.82 0-11.866-5.383-11.866-11.745 0-6.178 4.803-11.745 11.836-11.745 6.301 0 9.938 4.558 10.736 7.494h-4.374c-1.039-1.867-3.363-3.854-6.392-3.854-4.589 0-7.708 3.884-7.708 8.075 0 4.375 3.303 8.135 7.738 8.135 3.456 0 5.473-2.508 6.392-3.794h4.341c-1.406 4.375-5.717 7.434-10.703 7.434ZM157.29 63.756h12.51v3.61h-8.533v5.75h7.127v3.61h-7.127v6.055h8.533v3.61h-12.51V63.756ZM202.838 33.005l-.013.32c-.231 5.083-2.014 9.16-5.3 12.12-5.811 5.233-14.37 4.792-16.581 4.765h-.404V26.53c.107 0 .547 0 .658-.004 4.147-.027 8.976-.4 9.781 9.955l.023.307h.799V15.215h-.788l-.034.297c-1.062 9.825-6.024 9.785-10.069 9.795h-.37V2.728c.534-.003 1.409-.01 1.947-.02 7.627-.116 15.185-.901 18.4 15.326l.054.27h.811V1.47h-43.844v1.16h3.88v35.525c-.093 5.103-2.09 8.236-3.844 9.895-2.117 2.008-5.083 3.06-7.764 2.966-9.892-.357-10.169-10.306-10.176-10.737V2.628h4.505V1.47h-17.522v1.16h4.648l-.013 33.488c0 9.157 4.652 16.22 18.237 16.22 9.11 0 13.292-7.567 13.198-13.842V2.628h4.131v.007h4.899v47.559h-4.421v1.195h36.087V33.005h-.915ZM111.575 30.026v1.162h4.034v10.41c-.007 7.774-5.163 9.504-9.207 9.584-4.365.07-7.29-2.067-8.947-6.506-1.633-4.328-2.494-8.505-2.494-18.233 0-3.464.534-14.821 3.092-19.79.972-1.874 2.782-5.357 8.178-5.357h.051c6.578.026 10.359 4.582 13.425 16.794l.063.254h.745V0h-.718l-.087.207c-.701 1.68-2.375 2.047-3.817 2.014a11.267 11.267 0 0 1-1.777-.22c-.407-.09-.668-.174-.681-.178-.635-.2-1.196-.39-1.71-.56-.234-.08-.461-.148-.688-.211-1.66-.551-2.899-.902-4.819-.902-8.65 0-20.552 8.79-20.552 26.924 0 14.81 8.897 25.27 21.04 25.27 2.26 0 4.127-.741 5.884-1.556.327-.134.651-.27.962-.418 1.716-.814 3.343-1.586 5.173-1.683.073-.003.147-.003.22-.006.05 0 .1-.004.154-.004 1.058 0 3.182.685 3.593 2.722l.053.267.712.004V31.195h3.82v-1.163h-15.702v-.006ZM59.919.257c-10.26 0-21.5 10.253-21.5 25.905 0 15.653 11.611 26.042 21.5 26.042 9.891 0 21.5-10.39 21.5-26.042C81.421 10.51 70.176.257 59.918.257ZM71.906 24.24c.004.113.007.227.007.337.004.083.004.164.004.247l.003.194c0 .103.003.204.003.3v.114c0 .107.003.207.003.307V26.44c-.013 2.896-.257 14.09-3.189 19.67-1.653 3.233-4.922 4.943-8.82 4.943-3.897 0-7.166-1.71-8.823-4.946-2.932-5.577-3.175-16.775-3.189-19.667v-.701c0-.1 0-.2.003-.307v-.114c0-.096.004-.197.004-.3l.003-.194c0-.08.004-.164.004-.247.003-.11.003-.224.006-.337l.003-.12c.114-4.462.672-12.845 3.166-17.77 2.024-4.081 6.068-4.936 8.827-4.936 2.755 0 6.799.858 8.82 4.942 2.494 4.923 3.048 13.305 3.162 17.767 0 .037.003.077.003.117ZM32.892 1.476V2.62h4.084L26.082 39.073 12.928 2.62h3.733v-.668h.004v-.477H.057V2.62h4.809L23.294 51.66h.264L38.235 2.621h4.498V1.476h-9.841Z"/></svg>
